src/assets/images/benefits/04.svg

<svg width="160" height="160" viewBox="0 0 160 160" fill="none" xmlns="http://www.w3.org/2000/svg">
<rect x="1" y="1" width="158" height="158" rx="39" fill="#171E25"/>
<g filter="url(#filter0_d_2_2393)">
<path d="M52 79.9777C52 64.5215 64.5215 52 79.9777 52C95.4339 52 107.955 64.5215 107.955 79.9777C107.955 95.4339 95.4339 107.955 79.9777 107.955C64.5215 107.923 52 95.4012 52 79.9777Z" fill="#F7F7F7"/>
<path d="M52 79.9777C52 64.5215 64.5215 52 79.9777 52C95.4339 52 107.955 64.5215 107.955 79.9777C107.955 95.4339 95.4339 107.955 79.9777 107.955C64.5215 107.923 52 95.4012 52 79.9777Z" fill="url(#paint0_linear_2_2393)"/>
<path d="M93.0117 77.9904C92.8868 77.6559 92.5669 77.4334 92.2092 77.4334H81.8785L87.8374 65.8475C88.0247 65.483 87.9281 65.0373 87.6055 64.784C87.4498 64.6608 87.2624 64.6001 87.0759 64.6001C86.8766 64.6001 86.6773 64.6703 86.5173 64.808L80.2315 70.2365L67.6952 81.0636C67.4248 81.2971 67.3273 81.6744 67.4522 82.0089C67.5771 82.3435 67.8962 82.5668 68.2538 82.5668H78.5846L72.6257 94.1527C72.4383 94.5172 72.535 94.9629 72.8576 95.2162C73.0133 95.3394 73.2006 95.4001 73.3871 95.4001C73.5865 95.4001 73.7858 95.3299 73.9458 95.1922L80.2315 89.7637L92.7679 78.9366C93.0391 78.7031 93.1358 78.3258 93.0117 77.9904Z" fill="#10151A"/>
</g>
<rect x="1" y="1" width="158" height="158" rx="39" stroke="#2A3744" stroke-width="2"/>
<defs>
<filter id="filter0_d_2_2393" x="5" y="5" width="150" height="150" filterUnits="userSpaceOnUse" color-interpolation-filters="sRGB">
<feFlood flood-opacity="0" result="BackgroundImageFix"/>
<feColorMatrix in="SourceAlpha" type="matrix" values="0 0 0 0 0 0 0 0 0 0 0 0 0 0 0 0 0 0 127 0" result="hardAlpha"/>
<feOffset/>
<feGaussianBlur stdDeviation="23.5"/>
<feComposite in2="hardAlpha" operator="out"/>
<feColorMatrix type="matrix" values="0 0 0 0 1 0 0 0 0 0.67451 0 0 0 0 0.196078 0 0 0 0.3 0"/>
<feBlend mode="normal" in2="BackgroundImageFix" result="effect1_dropShadow_2_2393"/>
<feBlend mode="normal" in="SourceGraphic" in2="effect1_dropShadow_2_2393" result="shape"/>
</filter>
<linearGradient id="paint0_linear_2_2393" x1="79.9777" y1="52" x2="79.9777" y2="107.955" gradientUnits="userSpaceOnUse">
<stop stop-color="#FFCC4A"/>
<stop offset="1" stop-color="#FFAC32"/>
</linearGradient>
</defs>
</svg>

<svg width="160" height="160" fill="none" xmlns="http://www.w3.org/2000/svg"><rect x="1" y="1" width="158" height="158" rx="39" fill="#171E25"/><g filter="url(#filter0_d_2_2393)"><path d="M52 79.978C52 64.522 64.522 52 79.978 52c15.456 0 27.977 12.522 27.977 27.978 0 15.456-12.521 27.977-27.977 27.977C64.522 107.923 52 95.401 52 79.978z" fill="#F7F7F7"/><path d="M52 79.978C52 64.522 64.522 52 79.978 52c15.456 0 27.977 12.522 27.977 27.978 0 15.456-12.521 27.977-27.977 27.977C64.522 107.923 52 95.401 52 79.978z" fill="url(#paint0_linear_2_2393)"/><path d="M93.012 77.99a.857.857 0 00-.803-.557H81.88l5.958-11.586a.855.855 0 00-1.32-1.039l-6.285 5.428-12.537 10.828a.855.855 0 00.559 1.503h10.33l-5.958 11.586a.854.854 0 001.32 1.04l6.285-5.43 12.537-10.826a.856.856 0 00.244-.947z" fill="#10151A"/></g><rect x="1" y="1" width="158" height="158" rx="39" stroke="#2A3744" stroke-width="2"/><defs><linearGradient id="paint0_linear_2_2393" x1="79.978" y1="52" x2="79.978" y2="107.955" gradientUnits="userSpaceOnUse"><stop stop-color="#FFCC4A"/><stop offset="1" stop-color="#FFAC32"/></linearGradient><filter id="filter0_d_2_2393" x="5" y="5" width="150" height="150" filterUnits="userSpaceOnUse" color-interpolation-filters="sRGB"><feFlood flood-opacity="0" result="BackgroundImageFix"/><feColorMatrix in="SourceAlpha" values="0 0 0 0 0 0 0 0 0 0 0 0 0 0 0 0 0 0 127 0" result="hardAlpha"/><feOffset/><feGaussianBlur stdDeviation="23.5"/><feComposite in2="hardAlpha" operator="out"/><feColorMatrix values="0 0 0 0 1 0 0 0 0 0.67451 0 0 0 0 0.196078 0 0 0 0.3 0"/><feBlend in2="BackgroundImageFix" result="effect1_dropShadow_2_2393"/><feBlend in="SourceGraphic" in2="effect1_dropShadow_2_2393" result="shape"/></filter></defs></svg>
